X:165
T:Turnpike Gate. JC.164
R:Jig
S:John Clare,Poet,Helpstone (1793-1864)
O:England
A:Northamptonshire
Z:vmp.P. Headford
M:6/8
L:1/8
Q:3/8=120
K:D
ded|\
f2d g2e|a2f ded|e2g B2d|c2A ded|!
f2d g2e|a2f2 ded|e2″ crot in MS”g ABd|” crot”d3:|!
|:aba|a2f f2f|g2e e2e|f2d dcd|ecA A2A|!
dcd ede|fef gfg|aba agf|f2″ D.C.”e:|

